X: 7945
T:Totur fr Lolland / Falster
O:Denmark
M:2/4
K:D
DEFG AFdF | AFdF AFGE | DFAd fdBg | eABc d4 :|
f2f2 g2e2 | dcdf A2ce | dFAd cEGB | AFGE D4 :|
